X:54
T:Providence, The
R:reel
Z:Transcribed by Dave Marshall
M:C|
K:D
|:~E3F DEFA|d2fd gdfd|edBd A2FA|BdAF GFED|
~E3F DEFA|d2fd gdfd|edBd A2FA| BdAG FDD2:|
|:f~d3 fdgd|f~d3 eAce|f~d3 fded|ceag f~d3|
fgaf gfec|dBAF G2FG|A2^GB ABde| faeg fdd2:|
